remix/Media/tape-fill.svg

<svg viewBox="0 0 24 24" fill="currentColor" xmlns="http://www.w3.org/2000/svg"><path d="M10.8293 13C10.9398 12.6872 11 12.3506 11 12C11 10.3431 9.65685 9 8 9C6.34315 9 5 10.3431 5 12C5 13.6569 6.34315 15 8 15H16C17.6569 15 19 13.6569 19 12C19 10.3431 17.6569 9 16 9C14.3431 9 13 10.3431 13 12C13 12.3506 13.0602 12.6872 13.1707 13H10.8293ZM3 3H21C21.5523 3 22 3.44772 22 4V20C22 20.5523 21.5523 21 21 21H3C2.44772 21 2 20.5523 2 20V4C2 3.44772 2.44772 3 3 3ZM16 13C15.4477 13 15 12.5523 15 12C15 11.4477 15.4477 11 16 11C16.5523 11 17 11.4477 17 12C17 12.5523 16.5523 13 16 13ZM8 13C7.44772 13 7 12.5523 7 12C7 11.4477 7.44772 11 8 11C8.55228 11 9 11.4477 9 12C9 12.5523 8.55228 13 8 13Z"/></svg>

<svg viewBox="0 0 24 24" xmlns="http://www.w3.org/2000/svg"><path fill="none" d="M0 0h24v24H0Z"/><path d="M10.83 13l-.001-.001c.55-1.57-.27-3.28-1.83-3.83 -1.57-.56-3.28.26-3.83 1.82 -.56 1.56.26 3.27 1.82 3.82 .32.11.65.17.99.17h8v0c1.65-.01 2.99-1.35 2.99-3.01 -.01-1.66-1.35-3-3.01-3 -1.66 0-3 1.34-3 3 0 .34.05.67.17.99h-2.34ZM3 3h18v0c.55 0 1 .44 1 1v16 0c0 .55-.45 1-1 1H3v0c-.56 0-1-.45-1-1V4v0c0-.56.44-1 1-1Zm13 10v0c-.56 0-1-.45-1-1 0-.56.44-1 1-1v0c.55 0 1 .44 1 1 0 .55-.45 1-1 1Zm-8 0v0c-.56 0-1-.45-1-1 0-.56.44-1 1-1v0c.55 0 1 .44 1 1 0 .55-.45 1-1 1Z"/></svg>
